X: 13
T: Paddy Ryan's Dream
Z: Morgan Toney
S: https://thesession.org/tunes/79#setting35126
R: reel
M: 4/4
L: 1/8
K: Amin
|:cB|AE E/E/E {ABc}cA BG|E/^F/G DG B,G, DB,|A,/A,/A, EA, {B,}CD Ed|cA B^G A/A/A:|
AB|A<a a^g ae cA|B<g g^f gd BG|A<a a^g ae fd|ec dB cA AB|
A<a a^g ae cA|B<g g^f gd BG|Ac Bd ce df|e[ad] [^gc][^fB] [eA]d cB||

